<?xml version="1.0" encoding="UTF-8"?>
<map version="1.10" tiledversion="1.12.2" orientation="orthogonal" renderorder="right-down" width="100" height="80" tilewidth="32" tileheight="32" infinite="1" nextlayerid="3" nextobjectid="5">
 <tileset firstgid="1" source="hell_back_dark.tsx"/>
 <layer id="1" name="Tile Layer 1" width="100" height="80">
  <data encoding="csv"/>
 </layer>
 <objectgroup id="2" name="back">
  <object id="1" gid="2" x="-512" y="32" width="1024" height="346"/>
  <object id="2" gid="1" x="-512" y="32" width="1024" height="346"/>
  <object id="3" gid="4" x="-512" y="32" width="1024" height="346"/>
  <object id="4" gid="3" x="-512" y="32" width="1024" height="346"/>
 </objectgroup>
</map>
