<?xml version="1.0" encoding="UTF-8"?>
<map version="1.10" tiledversion="1.12.2" orientation="orthogonal" renderorder="right-down" width="50" height="40" tilewidth="32" tileheight="32" infinite="1" nextlayerid="9" nextobjectid="6">
 <tileset firstgid="1" source="hell_back_light.tsx"/>
 <group id="3" name="back">
  <objectgroup id="4" name="bg" offsetx="192" offsety="192">
   <object id="1" gid="2" x="-672" y="-0.333333" width="1024" height="346"/>
  </objectgroup>
  <objectgroup id="6" name="back" offsetx="0" offsety="224">
   <object id="4" gid="1" x="-480" y="-32" width="1024" height="346"/>
  </objectgroup>
  <objectgroup id="5" name="middle" offsetx="-64" offsety="416">
   <object id="3" gid="5" x="-416" y="-224" width="1024" height="346"/>
  </objectgroup>
  <objectgroup id="7" name="front" offsetx="0" offsety="224">
   <object id="5" gid="4" x="-480" y="-32" width="1024" height="346"/>
  </objectgroup>
 </group>
 <layer id="8" name="ground" width="50" height="40">
  <data encoding="csv"/>
 </layer>
</map>
